icons/intensive_care_unit_fill.svg

<svg width="48" height="48" viewBox="0 0 48 48" fill="none" xmlns="http://www.w3.org/2000/svg">
<path fill-rule="evenodd" clip-rule="evenodd" d="M6 9C6 7.34315 7.34315 6 9 6H39C40.6569 6 42 7.34315 42 9V39C42 40.6569 40.6569 42 39 42H9C7.34315 42 6 40.6569 6 39V9ZM27.6666 11.1111V10H29.6666V11.1111C29.6666 11.6634 30.1144 12.1111 30.6666 12.1111H34.6666C35.7712 12.1111 36.6666 13.0066 36.6666 14.1111V23.8114C37.4717 24.3672 38 25.3009 38 26.359C38 28.0429 36.6623 29.4116 35 29.4436V31.5556H38V33.5556H35.8305C36.2142 34.0248 36.4444 34.6244 36.4444 35.2778C36.4444 36.7812 35.2257 38 33.7222 38C32.2188 38 31 36.7812 31 35.2778C31 34.6244 31.2302 34.0248 31.6139 33.5556H16.3861C16.7698 34.0248 17 34.6244 17 35.2778C17 36.7812 15.7812 38 14.2778 38C12.7743 38 11.5556 36.7812 11.5556 35.2778C11.5556 34.6244 11.7858 34.0248 12.1695 33.5556H10V31.5556H12V23.1533L11.6855 22.8366C10.4752 21.6182 10.4752 19.6406 11.6855 18.4222C12.4396 17.663 13.4856 17.3779 14.4589 17.567L15.1032 16.9232C16.3358 15.6917 18.3335 15.6924 19.5653 16.9247L20.9654 18.3256C22.1973 19.5581 22.1966 21.5557 20.9639 22.7873L20.6769 23.074L20.8053 23.2033C20.8502 23.2485 20.911 23.2739 20.9744 23.2739H34.6666V14.1111H31.2222V14.6667H31.5555C32.1078 14.6667 32.5555 15.1144 32.5555 15.6667V19.8889C32.5555 20.4412 32.1078 20.8889 31.5555 20.8889H28.8889C28.3366 20.8889 27.8889 20.4412 27.8889 19.8889V15.6667C27.8889 15.1144 28.3366 14.6667 28.8889 14.6667H29.2222V13.7411C28.2949 13.2308 27.6666 12.2443 27.6666 11.1111ZM19.2675 21.6551L19.5503 21.3725C20.0015 20.9217 20.0018 20.1906 19.5509 19.7395L18.1507 18.3386C17.6997 17.8874 16.9681 17.8871 16.5168 18.338L16.2437 18.6109L19.2675 21.6551ZM33 29.4442V31.5556H14V25.1668L17.9918 29.1856C18.1563 29.3512 18.3793 29.4442 18.6117 29.4442H33Z" fill="black"/>
</svg>

<svg
  xmlns="http://www.w3.org/2000/svg"
  width="24"
  height="24"
  viewBox="0 0 24 24"
  fill="none"
  stroke="currentColor"
  stroke-width="2"
  stroke-linecap="round"
  stroke-linejoin="round"
>
  <path
    fill-rule="evenodd"
    d="M6 9a3 3 0 0 1 3-3h30a3 3 0 0 1 3 3v30a3 3 0 0 1-3 3H9a3 3 0 0 1-3-3zm21.667 2.111V10h2v1.111a1 1 0 0 0 1 1h4a2 2 0 0 1 2 2v9.7A3.09 3.09 0 0 1 38 26.36c0 1.684-1.338 3.053-3 3.085v2.112h3v2h-2.17a2.722 2.722 0 1 1-4.217 0H16.387a2.722 2.722 0 1 1-4.217 0H10v-2h2v-8.403l-.315-.316a3.137 3.137 0 0 1 0-4.415 3.07 3.07 0 0 1 2.774-.855l.644-.644a3.156 3.156 0 0 1 4.462.002l1.4 1.4a3.154 3.154 0 0 1-.001 4.462l-.287.287.128.13c.045.044.106.07.17.07h13.692V14.11h-3.445v.556h.333a1 1 0 0 1 1 1v4.222a1 1 0 0 1-1 1H28.89a1 1 0 0 1-1-1v-4.222a1 1 0 0 1 1-1h.333v-.926a3 3 0 0 1-1.555-2.63m-8.4 10.544.283-.283a1.155 1.155 0 0 0 0-1.633l-1.4-1.4a1.156 1.156 0 0 0-1.633-.001l-.273.273zM33 29.445v2.11H14v-6.388l3.992 4.019a.87.87 0 0 0 .62.258z"
    clip-rule="evenodd"
  />
</svg>
